X:40
T:Hoffedd Syr Watcyn - Sir Watcyn's Fancy
M:C
L:1/8
Q:160
C:Trad.
R:Processional
K:G
D | G2 B2 cB AG | FG AB c2 BA | G2 B2 A2 G2 | FE
FG A2 GF | G2 B2 cB AG | FG AB c2 dc | B2 cB A3
G | G6 :||: Bc | d2 G2 F2 G2 | A6 Bc
| d4 cB AG | FG AB cA GF | G2 B2 cB AG | FG
AB c2 dc | B2 cB A3 G | G6 :||
